apps/www/public/images/pricing/support-upgrade-light.svg

<svg width="19" height="16" viewBox="0 0 19 16" fill="none" xmlns="http://www.w3.org/2000/svg">
<path fill-rule="evenodd" clip-rule="evenodd" d="M1.46582 0L0.96582 0.5V12.2167L1.46582 12.7167H5.18688V15.5L6.04754 15.8463L9.05243 12.7167H9.81807V12.8432H10.8181V7.32562L10.3181 6.82562H8.73318L12.6882 2.81349L15.9658 6.13841V6.257H16.0827L16.6433 6.82562H15.2528L14.7528 7.32562V13H15.7528V7.82562H17.8382L18.1943 6.97461L16.9658 5.72839V0.5L16.4658 0H1.46582ZM15.9658 4.71395V1H1.96582V11.7167H5.68688L6.18688 12.2167V14.2573L8.47868 11.8704L8.83934 11.7167H9.81807V8.46826H4.2655V7.46826H7.38868L7.18213 6.97461L8.81583 5.31732H4.2655V4.31732H9.8016L12.3321 1.75025H13.0443L15.9658 4.71395ZM12.3093 15.5V7.96826H13.3093V15.5H12.3093Z" fill="url(#paint0_linear_2725_14902)"/>
<defs>
<linearGradient id="paint0_linear_2725_14902" x1="0.96582" y1="15.8463" x2="16.7569" y2="-1.32212" gradientUnits="userSpaceOnUse">
<stop stop-opacity="0.5"/>
<stop offset="1" stop-color="#020202"/>
</linearGradient>
</defs>
</svg>

<svg xmlns="http://www.w3.org/2000/svg" width="19" height="16" fill="none" viewBox="0 0 19 16"><path fill="url(#a)" fill-rule="evenodd" d="m1.466 0-.5.5v11.717l.5.5h3.72V15.5l.862.346 3.004-3.13h.766v.127h1V7.326l-.5-.5H8.733l3.955-4.013 3.278 3.325v.119h.117l.56.569h-1.39l-.5.5V13h1V7.826h2.085l.356-.851-1.228-1.247V.5l-.5-.5zm14.5 4.714V1h-14v10.717h3.72l.5.5v2.04L8.48 11.87l.36-.153h.98V8.468H4.264v-1H7.39l-.207-.493 1.634-1.658h-4.55v-1h5.536l2.53-2.567h.712zM12.309 15.5V7.968h1V15.5z" clip-rule="evenodd"/><defs><linearGradient id="a" x1=".966" x2="16.757" y1="15.846" y2="-1.322" gradientUnits="userSpaceOnUse"><stop stop-opacity=".5"/><stop offset="1" stop-color="#020202"/></linearGradient></defs></svg>
